X: 1
P: The Train Journey North
M: 4/4
L: 1/8
C: AUSTRALIAN LADIES Page 2
C: 
C: Tom Anderson
S: Scots Guards Vol. II
R: Hornpipe
F: http://home.usit.net/~bhooper/SCOT5.ABC	 2004-08-25 19:33:34 UT
K: D
|: A|"D"d2 fA dfAd|fAdf A2 df|"A7"g2 ec AceA|ceAc eAfe|
"D"d2 fA dfAd |fAdf A2 df|"A7"g2 ec AceA|"A"c2 eg "D"fd d :|
|: f|"D"a2 fd A2 fA|dfaf gfef|"A7"g2 ec A2 eA|ceAg "D"fAdf|
"D"a2 fd A2 fA|dfaf gfef|"A"g2 ec AceA|1 "A"c2 eg "D"fA d :|2 "A"c2 eg "D"fd d ||
|: A|"D"d2 fA dfAd|d2 fA dfAd|"A"c2 eA c2 eA|"D"d2 fA d2 fA|
d2 fA dfAd|d2 fA dfAd|"A"c2 ef g2 eA|1 "A"c2 eg "D"fd d :|2 "A"c2 eg "D"fA d||
|: f|"D"a2 fd d2 af|"A"gfed cdef|g2 ec c2 eA|"D"d2 fg a2 fg|
a2 fd d2 af|"A"gfed cdef|g2 ec AceA |1 "A"c2 eg "D"fA d :|2 "A"c2 eg "D" fd d ||

%%scale .70
